!! 00000] TT[00
!! NN
!!!OTL: Wang daniang ding gang
!!!ARE: Asia, China,Henan, Dengxian
!! Ethnic Group: Han
!! IV, 151
!!!SCT: C0394
!!!YEM: Copyright 1995, estate of Helmut Schaffrath.
**kern
*ICvox
*Ivox
*M2/4
*k[b-]
*F:
{8.cc
16cc
8cc
8cc
=1
8dd
8a
4cc}
=2
{8.cc
16a
8g
8cc
=3
16a
16g
8f
4g}
=4
{8g
8cc
8g
8cc
=5
16a
16g
8f
4g}
=6
{8.a
16a
8a
8a
=7
8a
8d
4f}
=8
{8.f
16d
4f
=9
16g
16f
8d
4c}
=10
{16c
16d
8f
16c
16d
8f
=11
16d
16c
16d
16f
4c}
==
!!!AGN: Xiaodiao
!! Verbreitet in ganz Nordchina. Kaum arrangiert.
!!!ONB: ESAC (Essen Associative Code) Database: CHINA_039
!!!AMT: simple duple
!!!AIN: vox
!!!EED: Helmut Schaffrath
!!!EEV: 1.0
*-
